resources/icons/16px/cloud-server.svg

<svg width="16" height="16" viewBox="0 0 16 16" fill="none" xmlns="http://www.w3.org/2000/svg">
<path d="M12 4C11.97 4 11.93 4 11.9 4.01C11.44 1.72 9.42 0 7 0C4.24 0 2 2.24 2 5C2 5.11 2.01 5.22 2.02 5.33C0.83 5.89 0 7.1 0 8.5C0 10.43 1.57 12 3.5 12H6V9C6 8.44771 6.44772 8 7 8H15C15.4366 8 15.8078 8.27979 15.9442 8.66986C15.9809 8.45206 16 8.22827 16 8C16 5.79 14.21 4 12 4Z" fill="#5F6B7C"/>
<path fill-rule="evenodd" clip-rule="evenodd" d="M7 9H15V12H7V9ZM10 10.5C10 10.2239 10.2239 10 10.5 10H13.5C13.7761 10 14 10.2239 14 10.5C14 10.7761 13.7761 11 13.5 11H10.5C10.2239 11 10 10.7761 10 10.5ZM9 10.5C9 10.7761 8.77614 11 8.5 11C8.22386 11 8 10.7761 8 10.5C8 10.2239 8.22386 10 8.5 10C8.77614 10 9 10.2239 9 10.5Z" fill="#5F6B7C"/>
<path fill-rule="evenodd" clip-rule="evenodd" d="M7 16V13H15V16H7ZM10 14.5C10 14.2239 10.2239 14 10.5 14H13.5C13.7761 14 14 14.2239 14 14.5C14 14.7761 13.7761 15 13.5 15H10.5C10.2239 15 10 14.7761 10 14.5ZM8.5 15C8.77614 15 9 14.7761 9 14.5C9 14.2239 8.77614 14 8.5 14C8.22386 14 8 14.2239 8 14.5C8 14.7761 8.22386 15 8.5 15Z" fill="#5F6B7C"/>
</svg>

<svg xmlns="http://www.w3.org/2000/svg" viewBox="0 0 16 16">
  <path d="M12 4c-.03 0-.07 0-.1.01A5 5 0 0 0 2 5c0 .11.01.22.02.33A3.51 3.51 0 0 0 0 8.5C0 10.43 1.57 12 3.5 12H6V9a1 1 0 0 1 1-1h8a1 1 0 0 1 .944.67A3.999 3.999 0 0 0 12 4"/>
  <path d="M7 9h8v3H7zm3 1.5a.5.5 0 0 1 .5-.5h3a.5.5 0 0 1 0 1h-3a.5.5 0 0 1-.5-.5m-1 0a.5.5 0 1 1-1 0 .5.5 0 0 1 1 0M7 16v-3h8v3zm3-1.5a.5.5 0 0 1 .5-.5h3a.5.5 0 0 1 0 1h-3a.5.5 0 0 1-.5-.5m-1.5.5a.5.5 0 1 0 0-1 .5.5 0 0 0 0 1"/>
</svg>
